resources/haticons/SVG/2k.svg

<!-- Generated by IcoMoon.io -->
<svg version="1.1" xmlns="http://www.w3.org/2000/svg" width="24" height="24" viewBox="0 0 24 24">
<title>2k</title>
<path d="M18 15l-2.25-3 2.25-3h-1.734l-1.781 2.25v-2.25h-1.5v6h1.5v-2.25l1.781 2.25h1.734zM9.984 12.516q0.422 0 0.727-0.305t0.305-0.727v-1.5q0-0.422-0.305-0.703t-0.727-0.281h-3.469v1.5h3v0.984h-2.016q-0.422 0-0.703 0.305t-0.281 0.727v2.484h4.5v-1.5h-3v-0.984h1.969zM18.984 3q0.797 0 1.406 0.609t0.609 1.406v13.969q0 0.797-0.609 1.406t-1.406 0.609h-13.969q-0.797 0-1.406-0.609t-0.609-1.406v-13.969q0-0.797 0.609-1.406t1.406-0.609h13.969z"></path>
</svg>

<svg xmlns="http://www.w3.org/2000/svg" width="24" height="24"><path d="M18 15l-2.25-3L18 9h-1.734l-1.781 2.25V9h-1.5v6h1.5v-2.25L16.266 15H18zm-8.016-2.484q.422 0 .727-.305t.305-.727v-1.5q0-.422-.305-.703T9.984 9H6.515v1.5h3v.984H7.499q-.422 0-.703.305t-.281.727V15h4.5v-1.5h-3v-.984h1.969zm9-9.516q.797 0 1.406.609t.609 1.406v13.969q0 .797-.609 1.406t-1.406.609H5.015q-.797 0-1.406-.609T3 18.984V5.015q0-.797.609-1.406T5.015 3h13.969z"/></svg>
